X:1
T:Fantasy in D minor
T:Fantasy in D minor
T:K397
T:Wolfgang Amadeus Mozart (1756-1791) 
T:Public Domain
T:Public Domain
T:Public Domain
T:Public Domain
C:Wolfgang Amadeus Mozart (1756-1791)
Z:Public Domain
%%score { ( 1 4 ) | ( 2 3 ) }
L:1/8
Q:1/4=50
M:4/4
K:F
V:1 treble nm="Piano" snm="Pno."
V:4 treble 
V:2 bass 
V:3 bass 
V:1
"^Andante."!p!!ped! z2 (3z (F,A, (3DA,F (3DA,F,) | z2 (3z (F,A, (3DA,F (3DA,F,)!ped-up! | %2
!ped! z2 (3z (G,B, (3EB,G (3EB,G,) | z2 (3z (G,B, (3EB,G (3EB,G,)!ped-up! | %4
!ped! z2 (3z (A,D (3^FDA (3FDA,) | z2 (3z (A,D (3^FDA (3FDA,)!ped-up! | %6
!ped! z2 (3(DAG-!ped-up!!ped! G2) (3(CGF-!ped-up! | %7
!ped! F2) (3(B,F_E-!ped-up!!ped! E2) (3(=B,=ED)!ped-up! |!ped! z2 (3z ^CE!<(! (3A^ce (3a^c'e'!<)! | %9
!>(! (3^d'e'^b (3^c'^ga!>)! (3^de^B (3^c^GA | !fermata!z8!ped-up! || %11
!p![Q:1/4=36]"^Adagio."!ped! (f7/2 e/4f/4 g)fed!ped-up! | %12
!ped! ^c2 z z/ .d/!ped-up! (^d!ped!e) z2!ped-up! |!ped! (g7/2 ^f/4g/4!ped-up!!ped! a)g=fe!ped-up! | %14
!ped! =d2 z z/ .e/ (gf) z2!ped-up! |!f! (([Aa]4 [Bb])) z z2 | %16
!p! (a>d' (3.^c'.=c'.=b _b2) z z/ .a/ | (a^g) z =g z ^f z [d=f] | z [^ce][ea][a^c'] [c'e'] z z2 | %19
!f! EEEE EEEE | EEEE (E^D)AA |!>(! (A3 ^G/4A/4=B/4A/4!>)! G2) z z/!p! .B/ | %22
 (A/^G/)z/.=B/ (A/G/)z/.B/ (A/G/)z/.B/ z/ .d/z/.G/ | %23
 (=B/A/)z/.c/ (B/A/)z/.c/ (B/A/)z/.c/ z/ .e/z/.A/ | %24
 (c/=B/)z/.d/ (c/B/)z/.d/ (c/B/)z/.d/ z/ .f/z/.B/ | %25
 (d/c/)z/.a/"_cresc." z/ .^g/z/.=g/ z/ .f/z/.e/!f! z/ .^d/!p!z/.=d/ | %26
 (c/e/)z/.a/"_cresc." z/ .^g/z/.=g/ z/ .f/z/.e/!f! z/ .^d/z/.=d/ | !fermata!z8 | %28
!p! (c7/2 =B/4c/4 d)cBA | ^G2 z z/ .A/ (^A=B) z2 | (f7/2 e/4f/4 =g)fed | %31
 ^c2 z z/ .d/ (^de) z z/ .f/ |"_cresc." (^fg) z z/!f! .a/ (c'b) z2 | %33
[Q:1/4=160]"^Presto." z/ (a/=c'/b/a/g/f/e/d/ ^c/e/A/=c/B/A/G/F/E/D/ ^C/E/[I:staff +1]A,/=C/B,/A,/G,/F,/E,/D,/[I:staff -1] x8!ped! =C/_E/^F/A/ =c/_e/^f/a/=c'/ _e')[Q:1/8=55] !fermata!z!ped-up! | %34
!f![Q:1/4=36]"^Tempo I°" DDDD DDDD | DDDD (D^C)GG |!>(! (G3 ^F/4G/4A/4G/4!>)! F2) z z/!p! .A/ | %37
 (G/^F/)z/.A/ (G/F/)z/.A/ (G/F/)z/.A/ z/ .=c/z/.^F/ | %38
 (A/G/)z/.B/ (A/G/)z/.B/ (A/G/)z/.B/ z/ .d/z/.G/ | %39
 (B/A/)z/.c/ (B/A/)z/.c/ (B/A/)z/.c/ z/ ._e/z/.A/ | (c/B/)z/.g/"_cresc." z/ .^f/z/.=f/ | %41
 z/ ._e/z/.d/!f! z/ .^c/!p!z/.=c/ | %42
 (B/d/)z/.g/"_cresc." z/ .^f/z/.=f/ (d/_e/) z/!f! .=e/ (g/f/)z/.^f/ | %43
 (a/g/)z/.a/ (c'/b/)z/.=b/ (d'/^c'/)z/.d'/ (f'!fermata!e') | %44
[Q:1/4=160]"^Presto" z/ ^d'/e'/=d'/ ^c'/=b/a/^g/ _b/a/=c'/b/a/=g/f/e/d/^c/=B/A/^G/ _B/A/=c/B/A/=G/F/E/D/^C/[I:staff +1]=B,/A,/^G,/[I:staff -1] x4 x2 x/ | %45
 x77/4[Q:1/4=100] |[Q:1/4=36]"^Tempo I°"!p! =f7/2 e/4f/4 gfed | ^c2 z z/ .d/ (^de) z2 | %48
 (g7/2 ^f/4g/4 a)g=fe | =d2 z z/ .e/ (gf) z2 |!f! (([Aa]4 [Bb])) z z2 | %51
!p! (a>d' (3.^c'.=c'.=b _b2) z z/ .a/ | (a^g) z z/ .g/ (e'=g) z z/ .g/ | (ef) z z/ .f/ (_e2- e>f) | %54
 (g>a b) z!f!!ped! x ^G,/4=B,/4D/4F/4 ^G/4=B/4d/4=f/4 ^g/4=b/4d'/4 f'/4 !fermata!z/4!ped-up! | %55
!p! [Ada] z z2 !stemless!^C z !fermata!z2 |:[K:D][M:2/4][Q:1/4=115]"^Allegretto.""_dolce" (A2 fd | %57
 c2 Bg/e/ | dcba) | (a3/2b/4g/4 f) x | eeee | (ea/) z/ (Bf/) z/ | (A2 c>B | A2) z2 :: (d2 ef | %65
 B3) .c/.^d/ | .e/.f/.g/.a/ .b.b | (=d2 c) (a | ^gd'bg | e'=gfb | x2 f>e) |1 d2 z2 :|2 d2 z (d || %73
 c)aaa | (a3/2b/4c'/4 d')(d | c)aaa | (a3/2b/4c'/4 d')d | [^d=c'][dc'][dc'][dc'] | %78
[Q:1/4=115]!>(! (=c'/[Q:1/4=114]"^.8"b/[Q:1/4=114]"^.3"^a/[Q:1/4=113]"^.5"b/!>)![Q:1/4=112]"^.4" =a/[Q:1/4=111]"^.2"g/[Q:1/4=109]"^.6"f/[Q:1/4=107]"^.9"e/ | %79
[Q:1/4=105]"^.9" =d2[Q:1/4=95]"^.8" f>[Q:1/4=86]e |[Q:1/4=115] d2) z (d | c)aaa | %82
 (a3/2b/4c'/4 d')(d | c)aaa | (a3/2b/4c'/4 d')d | [^d=c']4 | [eb]2 z2 |!f! [=fbd']2 z2 | %88
[Q:1/4=80][I:staff +1] !fermata!A,4- (A,/4B,/4A,/4^G,/4 A,/4B,/4[I:staff -1]C/4D/4E/4F/4=G/4A/4B/4c/4 d/4e/4f/4g/4a/4b/4c'/4 d'/4c'/4e'/4d'/4c'/4b/4 a/4c'/4b/4a/4g/4 f/4a/4g/4f/4e/4 ^d/4e/4f/4e/4g/4e/4) !trill(!!fermata!Te8- | %89
 !trill(!Te/(^d/4e/4f/4e/4g/4f/4"_rallent." a/4g/4f/4e/4 g/4f/4e/4=d/4 f/!>(!e/d/c/ edc!>)!B) | %90
[M:2/4][Q:1/4=115]"^a tempo""_dolce" (A2 fd | c2 Bg/e/ | dcba) | (a3/2b/4g/4 f)!f! x | %94
 d'[dad'][dad'][dad'] | [dgb]2 z!p! (g/e/ | c)[Gc][Gc][Gc] | [Fd]2 z2 |!f! [d=fb]2 z2 | %99
 [d^fa]2 z2 |!p! !stemless!C2 !fermata!z2 |!pp! (A,2 FD | C2 B,G/E/ | DCBA) | (A>FA) z | %105
!f! (A2 fd | B3 g/e/ | c/d/e/f/ g/a/b/c'/ | d') z!ff! [Acea] z | [Adf] z [EGAc] z | [DFAd]2 z2 |] %111
V:2
 (3(D,,F,,A,, D,6) | (3(D,,F,,A,, D,6) | (3(D,,G,,B,, D,6) | (3(D,,G,,B,, D,6) | %4
 (3(C,,^F,,A,, C,6) | (3(C,,^F,,A,, C,6) | (3(B,,D,G,- G,2) (3(A,,C,=F,- F,2) | %7
 (3(G,,B,,_E,- E,2) (3(^G,,=B,,F,- F,2) | (3A,,^C,=E, A,2 z4 | z8 | !fermata!A,,,4 z4 || %11
[K:treble] z [FA][FA][FA] z [FA][FA][FA] | z [GA][GA][GA] z [GA][GA][GA] | %13
 z [EA][EA][EA] z [EA][EA][EA] | z [FA][FA][FA] z [FA][FA][FA] | %15
 z2[K:bass] ([F,A,D]2 [E,G,^C]) z z2 |[K:treble] z2 (([Fd]2 [G^c]2)) z z/ [Fd]/ | %17
 [Ed] z [A^c] z [Dd] z [^G=B] z | A2 z2 z4 | z4 z2[K:bass] [A,,A,]2 | %20
 [^G,,^G,]2 [=G,,=G,]2 [^F,,^F,]2 [=F,,=F,]2 | [E,,E,]6 z2 | %22
[K:treble] z [=D=F][DF][DF] [DF][DF][DF][DF] | z [CE][CE][CE] [CE][CE][CE][CE] | %24
 z [^G,E][G,E][G,E] [G,E][G,E][G,E][G,E] | [A,E][A,C][=B,D][^CE] [DF][E^G][^FA][G=B] | %26
 A[A,=C][=B,D][^CE] [D=F][E^G][^FA][G=B] | !fermata!z8 |[K:bass] z [CE][CE][CE] z [CE][CE][CE] | %29
 z [DE][DE][DE] z [DE][DE][DE] | z [=B,D][B,D][B,D] z [B,D][B,D][B,D] | %31
 z [_B,E][B,E][B,E] z [B,^C][B,C][B,C] | z [B,^C][B,C][B,C] [E,G,]2 z2 | %33
 x8 x4 x2 x/ ^C,/E,/A,,/=C,/B,,/A,,/G,,/F,,/ =C,,/_E,,/^F,,/A,,/ =C,/_E,/^F,/A,/ x2 x2 x/ x x | %34
 z4 z2 [G,,G,]2 | [^F,,^F,]2 [=F,,=F,]2 [E,,E,]2 [_E,,_E,]2 | [D,,D,]6 z2 | %37
[K:treble] z [C_E][CE][CE] [CE][CE][CE][CE] | z [B,D][B,D][B,D] [B,D][B,D][B,D][B,D] | %39
[K:bass] z [^F,D][F,D][F,D] [F,D][F,D][F,D][F,D] | [G,D][G,B,][A,C][=B,D] | [C_E][D^F][=EG][FA] | %42
 G x x2 [CG][_B,_D][A,C][C_E] | =D D2 ^G, =G,[G,_B,] !fermata![G,B,]2 | %44
 x16 x _B,/A,/=C/B,/A,/=G,/F,/E,/D,/^C,/=B,,/A,,/^G,,/ | %45
 _B,,/A,,/=C,/B,,/A,,/=G,,/F,,/E,,/D,,/ !fermata!z2 !fermata!A,,2- A,,/=B,,/A,,/^G,,/ A,,_B,,/4=B,,/4C,/4^C,/4D,/4_E,/4=E,/4F,/4^F,/4G,/4^G,/4A,/4_B,/4=B,/4[I:staff -1]=C/4^C/4D/4_E/4=E/4=F/4^F/4=G/4^G/4A/4B/4=B/4=c/4^c/4=d/4^d/4e/4 | %46
[I:staff +1][K:treble] z [FA][FA][FA] z [FA][FA][FA] | z [GA][GA][GA] z [GA][GA][GA] | %48
 z [EA][EA][EA] z [EA][EA][EA] | z [FA][FA][FA] z [FA][FA][FA] | %50
 z2[K:bass] ([F,A,D]2 [E,G,^C]) z z2 |[K:treble] z2 (([Fd]2 [G^c]2)) z z/ [Fd]/ | %52
 [Ed]2 z2 [A^c]2 z2 | [Bd]2 z2[K:bass] [G,B,_E]4- | [G,B,E]2 z2 ^G,,/4=B,,/4D,/4F,/4 x2 x x/4 | %55
 [A,F] z z2 [E,=G,] z !fermata!z2 |:[K:D][M:2/4][K:treble] [DF]4 | [DG]4- | [DEG]4 | [DF]3 z | %60
 [^Gd][Gd][Gd][Gd] | [Ac] z [DF] z |[K:bass] (C2 D2) | C2 z2 :: z ([F,A,][E,=G,][D,F,]) | %65
 (D^D E2) | z2 z =F | (^F2 E) z | D4 | (C2 D2) |{G} (F2 G2) |1 F2 z2 :|2 %72
"_legato" (D/A/F/A/ F/A/F/A/ || G/A/c/A/ G/A/c/A/ | F/A/d/A/ F/A/F/A/ | G/A/c/A/ G/A/c/A/ | %76
 F/A/d/A/ F/A/F/A/ | F/!<(!A/F/A/ F/A/F/!<)!A/ | G2) z2 | (F2 G2) |"_legato" (D/A/F/A/ F/A/F/A/ | %81
 G/A/c/A/ G/A/c/A/ | F/A/d/A/ F/A/F/A/ | G/A/c/A/ G/A/c/A/ | F/A/d/A/ F/A/F/A/ | %85
!<(! F/A/F/A/ F/A/F/!<)!A/ | G2) z2 | [^G,^G]2 z2 |[K:bass] [A,,D,^F,]4 x8 x2 x/ x/4 !fermata!z8 | %89
[K:treble] [A,CG]4 x2 z4 |[M:2/4] [DF]4 | [DG]4- | [DEG]4 | [DF]3 z | %94
[K:bass] [F,,F,][F,,F,][F,,F,][F,,F,] | [G,,G,]2 z2 | [A,E][A,E][A,E][A,E] | [B,D]2 z2 | %98
 [^G,,^G,]2 z2 | [A,,A,]2 z2 | [E,=G,]2 !fermata!z2 | [D,F,]4 | [D,G,]4- | [D,E,G,]4 | [D,F,]3 z | %105
 [F,,D,]4 | [G,,G,]4 | [A,,E,G,]4 | [D,F,] z [A,,A,] z | [D,A,] z [A,,A,] z | [D,,D,]2 z2 |] %111
V:3
 D,,2- D,,6 | D,,2- D,,6 | D,,2- D,,6 | D,,2- D,,6 | C,,2- C,,6 | C,,2- C,,6 | B,,4 A,,4 | %7
 G,,4 ^G,,4 | x8 | x8 | x8 ||[K:treble] D4 D4 | E4 E4 | ^C4 C4 | D4 D4 | x2[K:bass] x6 | %16
[K:treble] x8 | x8 | x8 | x6[K:bass] x2 | x8 | x8 |[K:treble] x8 | x8 | x8 | x8 | A x7 | x8 | %28
[K:bass] A,4 A,4 | =B,4 B,4 | ^G,4 G,4 | =G,4 G,4 | E,4 ^C,2 x2 | x29 | x8 | x8 | x8 | %37
[K:treble] x8 | x8 |[K:bass] x8 | x4 | x4 | G[G,_B,][A,C][=B,D] x4 | B,^F,G,=F, =E,D, ^C,2 | %44
 x47/2 | x9/2 A,,,4 x43/4 |[K:treble] D4 D4 | E4 E4 | ^C4 C4 | D4 D4 | x2[K:bass] x6 | %51
[K:treble] x8 | x8 | x4[K:bass] x4 | x33/4 | x4 [A,,,A,,] x3 |:[K:D][M:2/4][K:treble] x4 | x4 | %58
 x4 | x4 | x4 | x4 |[K:bass] E,4 | A,2 x2 :: x4 | G,4 | x3 ^G, | A,3 x | B,4 | (A,^A,B,=G,) | %70
 =A,4 |1 D2 x2 :|2 x4 || x4 | x4 | x4 | x4 | x4 | x4 | A,4 | x4 | x4 | x4 | x4 | x4 | x4 | x4 | %87
 x4 |[K:bass] x91/4 |[K:treble] x10 |[M:2/4] x4 | x4 | x4 | x4 |[K:bass] x4 | x4 | x4 | x4 | x4 | %99
 x4 | [A,,,A,,]2 x2 | x4 | x4 | x4 | x4 | x4 | x4 | x4 | x4 | x4 | x4 |] %111
V:4
 x8 | x8 | x8 | x8 | x8 | x8 | x8 | x8 | x8 | x8 | x8 || x8 | x8 | x8 | x8 | x8 | x8 | x8 | x8 | %19
 x6 =C2 | =B,2 _B,2 A,2 ^D2 | (^D4 E2) x2 | x8 | x8 | x8 | x8 | x8 | x8 | x8 | x8 | x8 | x8 | x8 | %33
 x29 | x6 B,2 | A,2 _A,2 G,2 ^C2 | (^C4 D2) x2 | x8 | x8 | x8 | x4 | x4 | x8 | x8 | x47/2 | x77/4 | %46
 x8 | x8 | x8 | x8 | x8 | x8 | x8 | x7 x/8 !turn!x/8 x/8 x/8 x/ | x x/8 !turn!x/8 x/8 x/8 x27/4 | %55
 x8 |:[K:D][M:2/4] x4 | x4 | x x3 | d3 a/f/ | x4 | x4 | x2 ^G2 | A2 x2 :: x4 | x4 | x4 | x4 | x4 | %69
 x4 | d2 c2 |1 d2 x2 :|2 x4 || x4 | x4 | x4 | x4 | x4 | e2 z2 | z2 c2 | x4 | x4 | x4 | x4 | x4 | %85
 x4 | x4 | x4 | x91/4 | x10 |[M:2/4] x4 | x4 | x x3 | d2 x a/f/ | x4 | x4 | x4 | x4 | x4 | x4 | %100
 x4 | x4 | x4 | x x3 | D3 x | x4 | x4 | x4 | x4 | x4 | x4 |] %111

